X:1
C:from W’¼éson Bray
L:1/8
M:4/4
I:linebreak $
K:G
V:1 treble nm="iddle" snm="iddle"
V:1
 dB | A2 F2 G2 F2 | dcde fded | B2 [GB]2 [GB]3 A2 | BABc dedB |$ A2 F2 F2 A^c | d^cde fefg | %7
 a2 f2 ef e2 | d6 ::$ e2 | [DAf]3 a f2 d2 | [DBg]3 a g2 e2 | [DAf]3 a fedf | ed^cB A2 e2 |$ %14
 [DAf]3 a f2 d2 | [DBg]3 a gfg^g | a2 f2 ef e2 | d6 :| %18
